img/icon-phone.svg

<svg width="19" height="19" viewBox="0 0 19 19" fill="none" xmlns="http://www.w3.org/2000/svg">
<path d="M15.572 18.985H14.631C10.502 18.497 7.474 16.577 5.272 14.121C3.062 11.66 1.318 8.49202 0.977997 4.22802V3.08402C1.056 2.31002 1.437 1.78002 1.876 1.32702C2.425 0.76602 3.25 0.0440198 4.002 0.0190198C4.556 0.00101977 5.502 0.39902 5.881 0.91802C6.21 1.36402 6.385 2.25702 6.537 2.92102C6.691 3.59202 7.042 4.56402 6.945 5.21002C6.797 6.21702 5.458 6.64402 5.066 7.37602C6.373 10.511 8.509 12.815 11.359 14.407C12.074 14.015 12.705 12.835 13.691 12.812C14.05 12.803 14.509 12.99 14.875 13.098C15.277 13.219 15.625 13.373 15.979 13.506C16.575 13.73 17.627 14.027 17.983 14.527C18.348 15.04 18.553 15.883 18.473 16.406C18.309 17.447 16.594 18.603 15.572 18.985Z" fill="#B7BFC8"/>
</svg>

<svg xmlns="http://www.w3.org/2000/svg" fill="none" viewBox="0 0 19 19"><defs/><path fill="#B7BFC8" d="M15.57 18.98h-.94a14.53 14.53 0 01-9.36-4.86 16.33 16.33 0 01-4.3-9.9V3.09c.09-.77.47-1.3.9-1.75C2.44.77 3.26.04 4 .02 4.56 0 5.5.4 5.88.92c.33.44.5 1.34.66 2 .15.67.5 1.64.4 2.29-.14 1-1.48 1.43-1.87 2.17a14.03 14.03 0 006.29 7.03c.71-.4 1.35-1.57 2.33-1.6.36 0 .82.18 1.19.29.4.12.74.27 1.1.4.6.23 1.65.53 2 1.03.37.51.57 1.35.5 1.88-.17 1.04-1.89 2.2-2.9 2.57z"/></svg>
